svgs/light/money-bill.svg

<svg xmlns="http://www.w3.org/2000/svg" viewBox="0 0 576 512"><!--! Font Awesome Pro 6.5.1 by @fontawesome - https://fontawesome.com License - https://fontawesome.com/license (Commercial License) Copyright 2023 Fonticons, Inc. --><path d="M480 96c0 35.3 28.7 64 64 64V128c0-17.7-14.3-32-32-32H480zm-32 0H128c0 53-43 96-96 96V320c53 0 96 43 96 96H448c0-53 43-96 96-96V192c-53 0-96-43-96-96zM32 384c0 17.7 14.3 32 32 32H96c0-35.3-28.7-64-64-64v32zm512-32c-35.3 0-64 28.7-64 64h32c17.7 0 32-14.3 32-32V352zM64 96c-17.7 0-32 14.3-32 32v32c35.3 0 64-28.7 64-64H64zM0 128C0 92.7 28.7 64 64 64H512c35.3 0 64 28.7 64 64V384c0 35.3-28.7 64-64 64H64c-35.3 0-64-28.7-64-64V128zM352 256a64 64 0 1 0 -128 0 64 64 0 1 0 128 0zm-160 0a96 96 0 1 1 192 0 96 96 0 1 1 -192 0z"/></svg>

<svg xmlns="http://www.w3.org/2000/svg" viewBox="0 0 576 512"><!--! Font Awesome Pro 6.1.1 by @fontawesome - https://fontawesome.com License - https://fontawesome.com/license (Commercial License) Copyright 2022 Fonticons, Inc. --><path d="M384 256C384 309 341 352 288 352C234.1 352 192 309 192 256C192 202.1 234.1 160 288 160C341 160 384 202.1 384 256zM288 192C252.7 192 224 220.7 224 256C224 291.3 252.7 320 288 320C323.3 320 352 291.3 352 256C352 220.7 323.3 192 288 192zM0 128C0 92.65 28.65 64 64 64H512C547.3 64 576 92.65 576 128V384C576 419.3 547.3 448 512 448H64C28.65 448 0 419.3 0 384V128zM544 160V128C544 110.3 529.7 96 512 96H480C480 131.3 508.7 160 544 160zM448 96H128C128 149 85.02 192 32 192V320C85.02 320 128 362.1 128 416H448C448 362.1 490.1 320 544 320V192C490.1 192 448 149 448 96zM64 416H96C96 380.7 67.35 352 32 352V384C32 401.7 46.33 416 64 416zM544 352C508.7 352 480 380.7 480 416H512C529.7 416 544 401.7 544 384V352zM32 128V160C67.35 160 96 131.3 96 96H64C46.33 96 32 110.3 32 128z"/></svg>
